X: 1
P: Duran Rangers
R: reel
C: from B. McOwen, arr. by T. Traub 4-10-2005
M: 4/4
L: 1/8
K: D
|: AG|"D"FDFA d2 ef|"Em"gefd "A"c2 BA|"G"BcdB "D"ABAF|"Em"G2 E2 "A"E2 AG|"D"FDFA d2 ef|
"Em"gefd "A"c2 BA|"G"BcdB "A"ABAG|"D" F2 D2 D2 :||: fg|"D"afaf d2 ga|"G"bgbg "A"e2 fg|
"D"afaf abaf|"Em"g2 e2 "A"e2 AG|"D"FDFA d2 ef|"Em"gefd "A"c2 BA|"G"BcdB "A"ABAG |"D"F2 D2 D2 :|
